images/3234268.svg

<?xml version="1.0" encoding="UTF-8"?>
<svg xmlns="http://www.w3.org/2000/svg" xmlns:xlink="http://www.w3.org/1999/xlink" width="300pt" height="300pt" viewBox="0 0 300 300" version="1.1">
<defs>
<g>
<symbol overflow="visible" id="glyph0-0">
<path style="stroke:none;" d="M 0.453125 1.59375 L 0.453125 -6.34375 L 4.953125 -6.34375 L 4.953125 1.59375 Z M 0.953125 1.09375 L 4.453125 1.09375 L 4.453125 -5.84375 L 0.953125 -5.84375 Z M 0.953125 1.09375 "/>
</symbol>
<symbol overflow="visible" id="glyph0-1">
<path style="stroke:none;" d="M 3.546875 -5.953125 C 2.898438 -5.953125 2.382812 -5.710938 2 -5.234375 C 1.625 -4.753906 1.4375 -4.101562 1.4375 -3.28125 C 1.4375 -2.445312 1.625 -1.789062 2 -1.3125 C 2.382812 -0.832031 2.898438 -0.59375 3.546875 -0.59375 C 4.191406 -0.59375 4.703125 -0.832031 5.078125 -1.3125 C 5.453125 -1.789062 5.640625 -2.445312 5.640625 -3.28125 C 5.640625 -4.101562 5.453125 -4.753906 5.078125 -5.234375 C 4.703125 -5.710938 4.191406 -5.953125 3.546875 -5.953125 Z M 3.546875 -6.6875 C 4.460938 -6.6875 5.195312 -6.375 5.75 -5.75 C 6.300781 -5.132812 6.578125 -4.3125 6.578125 -3.28125 C 6.578125 -2.238281 6.300781 -1.410156 5.75 -0.796875 C 5.195312 -0.179688 4.460938 0.125 3.546875 0.125 C 2.617188 0.125 1.878906 -0.179688 1.328125 -0.796875 C 0.773438 -1.410156 0.5 -2.238281 0.5 -3.28125 C 0.5 -4.3125 0.773438 -5.132812 1.328125 -5.75 C 1.878906 -6.375 2.617188 -6.6875 3.546875 -6.6875 Z M 3.546875 -6.6875 "/>
</symbol>
<symbol overflow="visible" id="glyph0-2">
<path style="stroke:none;" d="M 0.890625 -6.5625 L 2.078125 -6.5625 L 4.984375 -1.078125 L 4.984375 -6.5625 L 5.84375 -6.5625 L 5.84375 0 L 4.65625 0 L 1.75 -5.484375 L 1.75 0 L 0.890625 0 Z M 0.890625 -6.5625 "/>
</symbol>
<symbol overflow="visible" id="glyph0-3">
<path style="stroke:none;" d="M 0.890625 -6.5625 L 1.765625 -6.5625 L 1.765625 -3.875 L 5 -3.875 L 5 -6.5625 L 5.890625 -6.5625 L 5.890625 0 L 5 0 L 5 -3.125 L 1.765625 -3.125 L 1.765625 0 L 0.890625 0 Z M 0.890625 -6.5625 "/>
</symbol>
</g>
</defs>
<g id="surface40113">
<rect x="0" y="0" width="300" height="300" style="fill:rgb(100%,100%,100%);fill-opacity:1;stroke:none;"/>
<path style="fill:none;stroke-width:1.2;stroke-linecap:butt;stroke-linejoin:miter;stroke:rgb(0%,0%,0%);stroke-opacity:1;stroke-miterlimit:10;" d="M 264.75 136.949219 L 258.09375 128.308594 "/>
<path style="fill:none;stroke-width:1.2;stroke-linecap:butt;stroke-linejoin:miter;stroke:rgb(100%,0%,0%);stroke-opacity:1;stroke-miterlimit:10;" d="M 258.09375 128.308594 L 251.4375 119.671875 "/>
<path style="fill:none;stroke-width:1.2;stroke-linecap:butt;stroke-linejoin:miter;stroke:rgb(100%,0%,0%);stroke-opacity:1;stroke-miterlimit:10;" d="M 251.4375 119.671875 L 240.625 121.117188 "/>
<path style="fill:none;stroke-width:1.2;stroke-linecap:butt;stroke-linejoin:miter;stroke:rgb(0%,0%,0%);stroke-opacity:1;stroke-miterlimit:10;" d="M 240.625 121.117188 L 229.816406 122.5625 "/>
<path style=" stroke:none;fill-rule:nonzero;fill:rgb(100%,100%,100%);fill-opacity:1;" d="M 247.4375 114.171875 L 255.4375 114.171875 L 255.4375 125.171875 L 247.4375 125.171875 Z M 247.4375 114.171875 "/>
<g style="fill:rgb(100%,0%,0%);fill-opacity:1;">
  <use xlink:href="#glyph0-1" x="247.4375" y="122.834961"/>
</g>
<path style="fill:none;stroke-width:1.2;stroke-linecap:butt;stroke-linejoin:miter;stroke:rgb(0%,0%,0%);stroke-opacity:1;stroke-miterlimit:10;" d="M 229.816406 122.5625 L 221.511719 142.730469 "/>
<path style="fill:none;stroke-width:1.2;stroke-linecap:butt;stroke-linejoin:miter;stroke:rgb(0%,0%,0%);stroke-opacity:1;stroke-miterlimit:10;" d="M 224.242188 122.625 L 217.597656 138.761719 "/>
<path style="fill:none;stroke-width:1.2;stroke-linecap:butt;stroke-linejoin:miter;stroke:rgb(0%,0%,0%);stroke-opacity:1;stroke-miterlimit:10;" d="M 216.503906 105.289062 L 229.816406 122.5625 "/>
<path style="fill:none;stroke-width:1.2;stroke-linecap:butt;stroke-linejoin:miter;stroke:rgb(0%,0%,0%);stroke-opacity:1;stroke-miterlimit:10;" d="M 221.511719 142.730469 L 199.894531 145.625 "/>
<path style="fill:none;stroke-width:1.2;stroke-linecap:butt;stroke-linejoin:miter;stroke:rgb(0%,0%,0%);stroke-opacity:1;stroke-miterlimit:10;" d="M 199.894531 145.625 L 186.582031 128.347656 "/>
<path style="fill:none;stroke-width:1.2;stroke-linecap:butt;stroke-linejoin:miter;stroke:rgb(0%,0%,0%);stroke-opacity:1;stroke-miterlimit:10;" d="M 202.628906 140.761719 L 191.976562 126.941406 "/>
<path style="fill:none;stroke-width:1.2;stroke-linecap:butt;stroke-linejoin:miter;stroke:rgb(0%,0%,0%);stroke-opacity:1;stroke-miterlimit:10;" d="M 199.894531 145.625 L 195.742188 155.707031 "/>
<path style="fill:none;stroke-width:1.2;stroke-linecap:butt;stroke-linejoin:miter;stroke:rgb(100%,0%,0%);stroke-opacity:1;stroke-miterlimit:10;" d="M 195.742188 155.707031 L 191.589844 165.792969 "/>
<path style="fill:none;stroke-width:1.2;stroke-linecap:butt;stroke-linejoin:miter;stroke:rgb(0%,0%,0%);stroke-opacity:1;stroke-miterlimit:10;" d="M 186.582031 128.347656 L 194.886719 108.179688 "/>
<path style="fill:none;stroke-width:1.2;stroke-linecap:butt;stroke-linejoin:miter;stroke:rgb(0%,0%,0%);stroke-opacity:1;stroke-miterlimit:10;" d="M 186.582031 128.347656 L 164.960938 131.238281 "/>
<path style="fill:none;stroke-width:1.2;stroke-linecap:butt;stroke-linejoin:miter;stroke:rgb(0%,0%,0%);stroke-opacity:1;stroke-miterlimit:10;" d="M 194.886719 108.179688 L 216.503906 105.289062 "/>
<path style="fill:none;stroke-width:1.2;stroke-linecap:butt;stroke-linejoin:miter;stroke:rgb(0%,0%,0%);stroke-opacity:1;stroke-miterlimit:10;" d="M 197.726562 112.976562 L 215.023438 110.664062 "/>
<path style="fill:none;stroke-width:1.2;stroke-linecap:butt;stroke-linejoin:miter;stroke:rgb(0%,0%,0%);stroke-opacity:1;stroke-miterlimit:10;" d="M 164.960938 131.238281 L 160.808594 141.324219 "/>
<path style="fill:none;stroke-width:1.2;stroke-linecap:butt;stroke-linejoin:miter;stroke:rgb(0%,0%,100%);stroke-opacity:1;stroke-miterlimit:10;" d="M 160.808594 141.324219 L 156.65625 151.40625 "/>
<path style="fill:none;stroke-width:1.2;stroke-linecap:butt;stroke-linejoin:miter;stroke:rgb(0%,0%,100%);stroke-opacity:1;stroke-miterlimit:10;" d="M 156.65625 151.40625 L 145.847656 152.855469 "/>
<path style="fill:none;stroke-width:1.2;stroke-linecap:butt;stroke-linejoin:miter;stroke:rgb(0%,0%,0%);stroke-opacity:1;stroke-miterlimit:10;" d="M 145.847656 152.855469 L 135.039062 154.300781 "/>
<path style=" stroke:none;fill-rule:nonzero;fill:rgb(100%,100%,100%);fill-opacity:1;" d="M 149.65625 145.90625 L 163.65625 145.90625 L 163.65625 156.90625 L 149.65625 156.90625 Z M 149.65625 145.90625 "/>
<g style="fill:rgb(0%,0%,100%);fill-opacity:1;">
  <use xlink:href="#glyph0-2" x="149.65625" y="154.569336"/>
  <use xlink:href="#glyph0-3" x="156.633789" y="154.569336"/>
</g>
<path style="fill:none;stroke-width:1.2;stroke-linecap:butt;stroke-linejoin:miter;stroke:rgb(0%,0%,0%);stroke-opacity:1;stroke-miterlimit:10;" d="M 135.039062 154.300781 L 128.382812 145.660156 "/>
<path style="fill:none;stroke-width:1.2;stroke-linecap:butt;stroke-linejoin:miter;stroke:rgb(0%,0%,100%);stroke-opacity:1;stroke-miterlimit:10;" d="M 128.382812 145.660156 L 121.722656 137.023438 "/>
<path style="fill:none;stroke-width:1.2;stroke-linecap:butt;stroke-linejoin:miter;stroke:rgb(0%,0%,0%);stroke-opacity:1;stroke-miterlimit:10;" d="M 129.640625 155.703125 L 124.316406 148.792969 "/>
<path style="fill:none;stroke-width:1.2;stroke-linecap:butt;stroke-linejoin:miter;stroke:rgb(0%,0%,100%);stroke-opacity:1;stroke-miterlimit:10;" d="M 124.316406 148.792969 L 118.992188 141.882812 "/>
<path style="fill:none;stroke-width:1.2;stroke-linecap:butt;stroke-linejoin:miter;stroke:rgb(0%,0%,0%);stroke-opacity:1;stroke-miterlimit:10;" d="M 126.734375 174.46875 L 135.039062 154.300781 "/>
<path style="fill:none;stroke-width:1.2;stroke-linecap:butt;stroke-linejoin:miter;stroke:rgb(0%,0%,100%);stroke-opacity:1;stroke-miterlimit:10;" d="M 121.722656 137.023438 L 110.914062 138.46875 "/>
<path style="fill:none;stroke-width:1.2;stroke-linecap:butt;stroke-linejoin:miter;stroke:rgb(0%,0%,0%);stroke-opacity:1;stroke-miterlimit:10;" d="M 110.914062 138.46875 L 100.105469 139.914062 "/>
<path style=" stroke:none;fill-rule:nonzero;fill:rgb(100%,100%,100%);fill-opacity:1;" d="M 118.722656 131.523438 L 125.722656 131.523438 L 125.722656 142.523438 L 118.722656 142.523438 Z M 118.722656 131.523438 "/>
<g style="fill:rgb(0%,0%,100%);fill-opacity:1;">
  <use xlink:href="#glyph0-2" x="118.722656" y="140.186523"/>
</g>
<path style="fill:none;stroke-width:1.2;stroke-linecap:butt;stroke-linejoin:miter;stroke:rgb(0%,0%,0%);stroke-opacity:1;stroke-miterlimit:10;" d="M 100.105469 139.914062 L 95.953125 150 "/>
<path style="fill:none;stroke-width:1.2;stroke-linecap:butt;stroke-linejoin:miter;stroke:rgb(0%,0%,100%);stroke-opacity:1;stroke-miterlimit:10;" d="M 95.953125 150 L 91.800781 160.085938 "/>
<path style="fill:none;stroke-width:1.2;stroke-linecap:butt;stroke-linejoin:miter;stroke:rgb(0%,0%,0%);stroke-opacity:1;stroke-miterlimit:10;" d="M 104.019531 143.886719 L 100.699219 151.953125 "/>
<path style="fill:none;stroke-width:1.2;stroke-linecap:butt;stroke-linejoin:miter;stroke:rgb(0%,0%,100%);stroke-opacity:1;stroke-miterlimit:10;" d="M 100.699219 151.953125 L 97.378906 160.019531 "/>
<path style="fill:none;stroke-width:1.2;stroke-linecap:butt;stroke-linejoin:miter;stroke:rgb(0%,0%,0%);stroke-opacity:1;stroke-miterlimit:10;" d="M 100.105469 139.914062 L 86.792969 122.640625 "/>
<path style="fill:none;stroke-width:1.2;stroke-linecap:butt;stroke-linejoin:miter;stroke:rgb(0%,0%,100%);stroke-opacity:1;stroke-miterlimit:10;" d="M 91.800781 160.085938 L 98.457031 168.722656 "/>
<path style="fill:none;stroke-width:1.2;stroke-linecap:butt;stroke-linejoin:miter;stroke:rgb(0%,0%,0%);stroke-opacity:1;stroke-miterlimit:10;" d="M 98.457031 168.722656 L 105.113281 177.359375 "/>
<path style=" stroke:none;fill-rule:nonzero;fill:rgb(100%,100%,100%);fill-opacity:1;" d="M 88.800781 154.585938 L 95.800781 154.585938 L 95.800781 165.585938 L 88.800781 165.585938 Z M 88.800781 154.585938 "/>
<g style="fill:rgb(0%,0%,100%);fill-opacity:1;">
  <use xlink:href="#glyph0-2" x="88.800781" y="163.249023"/>
</g>
<path style="fill:none;stroke-width:1.2;stroke-linecap:butt;stroke-linejoin:miter;stroke:rgb(0%,0%,0%);stroke-opacity:1;stroke-miterlimit:10;" d="M 105.113281 177.359375 L 96.808594 197.527344 "/>
<path style="fill:none;stroke-width:1.2;stroke-linecap:butt;stroke-linejoin:miter;stroke:rgb(0%,0%,0%);stroke-opacity:1;stroke-miterlimit:10;" d="M 109.03125 181.332031 L 102.386719 197.464844 "/>
<path style="fill:none;stroke-width:1.2;stroke-linecap:butt;stroke-linejoin:miter;stroke:rgb(0%,0%,0%);stroke-opacity:1;stroke-miterlimit:10;" d="M 126.734375 174.46875 L 105.113281 177.359375 "/>
<path style="fill:none;stroke-width:1.2;stroke-linecap:butt;stroke-linejoin:miter;stroke:rgb(0%,0%,0%);stroke-opacity:1;stroke-miterlimit:10;" d="M 96.808594 197.527344 L 110.125 214.804688 "/>
<path style="fill:none;stroke-width:1.2;stroke-linecap:butt;stroke-linejoin:miter;stroke:rgb(0%,0%,0%);stroke-opacity:1;stroke-miterlimit:10;" d="M 110.125 214.804688 L 131.742188 211.914062 "/>
<path style="fill:none;stroke-width:1.2;stroke-linecap:butt;stroke-linejoin:miter;stroke:rgb(0%,0%,0%);stroke-opacity:1;stroke-miterlimit:10;" d="M 111.605469 209.429688 L 128.902344 207.117188 "/>
<path style="fill:none;stroke-width:1.2;stroke-linecap:butt;stroke-linejoin:miter;stroke:rgb(0%,0%,0%);stroke-opacity:1;stroke-miterlimit:10;" d="M 131.742188 211.914062 L 140.046875 191.746094 "/>
<path style="fill:none;stroke-width:1.2;stroke-linecap:butt;stroke-linejoin:miter;stroke:rgb(0%,0%,0%);stroke-opacity:1;stroke-miterlimit:10;" d="M 140.046875 191.746094 L 126.734375 174.46875 "/>
<path style="fill:none;stroke-width:1.2;stroke-linecap:butt;stroke-linejoin:miter;stroke:rgb(0%,0%,0%);stroke-opacity:1;stroke-miterlimit:10;" d="M 134.652344 193.148438 L 124 179.328125 "/>
<path style="fill:none;stroke-width:1.2;stroke-linecap:butt;stroke-linejoin:miter;stroke:rgb(0%,0%,0%);stroke-opacity:1;stroke-miterlimit:10;" d="M 86.792969 122.640625 L 95.097656 102.472656 "/>
<path style="fill:none;stroke-width:1.2;stroke-linecap:butt;stroke-linejoin:miter;stroke:rgb(0%,0%,0%);stroke-opacity:1;stroke-miterlimit:10;" d="M 82.875 118.667969 L 89.519531 102.535156 "/>
<path style="fill:none;stroke-width:1.2;stroke-linecap:butt;stroke-linejoin:miter;stroke:rgb(0%,0%,0%);stroke-opacity:1;stroke-miterlimit:10;" d="M 65.171875 125.53125 L 86.792969 122.640625 "/>
<path style="fill:none;stroke-width:1.2;stroke-linecap:butt;stroke-linejoin:miter;stroke:rgb(0%,0%,0%);stroke-opacity:1;stroke-miterlimit:10;" d="M 95.097656 102.472656 L 81.78125 85.195312 "/>
<path style="fill:none;stroke-width:1.2;stroke-linecap:butt;stroke-linejoin:miter;stroke:rgb(0%,0%,0%);stroke-opacity:1;stroke-miterlimit:10;" d="M 81.78125 85.195312 L 60.164062 88.085938 "/>
<path style="fill:none;stroke-width:1.2;stroke-linecap:butt;stroke-linejoin:miter;stroke:rgb(0%,0%,0%);stroke-opacity:1;stroke-miterlimit:10;" d="M 80.300781 90.570312 L 63.007812 92.882812 "/>
<path style="fill:none;stroke-width:1.2;stroke-linecap:butt;stroke-linejoin:miter;stroke:rgb(0%,0%,0%);stroke-opacity:1;stroke-miterlimit:10;" d="M 60.164062 88.085938 L 51.859375 108.253906 "/>
<path style="fill:none;stroke-width:1.2;stroke-linecap:butt;stroke-linejoin:miter;stroke:rgb(0%,0%,0%);stroke-opacity:1;stroke-miterlimit:10;" d="M 51.859375 108.253906 L 65.171875 125.53125 "/>
<path style="fill:none;stroke-width:1.2;stroke-linecap:butt;stroke-linejoin:miter;stroke:rgb(0%,0%,0%);stroke-opacity:1;stroke-miterlimit:10;" d="M 57.253906 106.851562 L 67.90625 120.671875 "/>
<path style="fill:none;stroke-width:1.2;stroke-linecap:butt;stroke-linejoin:miter;stroke:rgb(0%,0%,0%);stroke-opacity:1;stroke-miterlimit:10;" d="M 65.171875 125.53125 L 61.019531 135.617188 "/>
<path style="fill:none;stroke-width:1.2;stroke-linecap:butt;stroke-linejoin:miter;stroke:rgb(100%,0%,0%);stroke-opacity:1;stroke-miterlimit:10;" d="M 61.019531 135.617188 L 56.867188 145.699219 "/>
<path style="fill:none;stroke-width:1.2;stroke-linecap:butt;stroke-linejoin:miter;stroke:rgb(100%,0%,0%);stroke-opacity:1;stroke-miterlimit:10;" d="M 56.867188 145.699219 L 46.058594 147.144531 "/>
<path style="fill:none;stroke-width:1.2;stroke-linecap:butt;stroke-linejoin:miter;stroke:rgb(0%,0%,0%);stroke-opacity:1;stroke-miterlimit:10;" d="M 46.058594 147.144531 L 35.25 148.59375 "/>
<path style=" stroke:none;fill-rule:nonzero;fill:rgb(100%,100%,100%);fill-opacity:1;" d="M 52.867188 140.199219 L 60.867188 140.199219 L 60.867188 151.199219 L 52.867188 151.199219 Z M 52.867188 140.199219 "/>
<g style="fill:rgb(100%,0%,0%);fill-opacity:1;">
  <use xlink:href="#glyph0-1" x="52.867188" y="148.862305"/>
</g>
<path style="fill:none;stroke-width:1.2;stroke-linecap:butt;stroke-linejoin:miter;stroke:rgb(100%,0%,0%);stroke-opacity:1;stroke-miterlimit:10;" d="M 191.589844 165.792969 L 198.246094 174.429688 "/>
<path style="fill:none;stroke-width:1.2;stroke-linecap:butt;stroke-linejoin:miter;stroke:rgb(0%,0%,0%);stroke-opacity:1;stroke-miterlimit:10;" d="M 198.246094 174.429688 L 204.902344 183.066406 "/>
<path style=" stroke:none;fill-rule:nonzero;fill:rgb(100%,100%,100%);fill-opacity:1;" d="M 187.589844 160.292969 L 195.589844 160.292969 L 195.589844 171.292969 L 187.589844 171.292969 Z M 187.589844 160.292969 "/>
<g style="fill:rgb(100%,0%,0%);fill-opacity:1;">
  <use xlink:href="#glyph0-1" x="187.589844" y="168.956055"/>
</g>
</g>
</svg>

<svg xmlns="http://www.w3.org/2000/svg" xmlns:xlink="http://www.w3.org/1999/xlink" width="300pt" height="300pt" viewBox="0 0 300 300"><defs><symbol overflow="visible"><path d="M.453 1.594v-7.938h4.5v7.938zm.5-.5h3.5v-6.938h-3.5zm0 0"/></symbol><symbol overflow="visible" id="a"><path d="M3.547-5.953c-.65 0-1.164.242-1.547.72-.375.48-.563 1.13-.563 1.952 0 .835.188 1.49.563 1.967.383.48.898.72 1.547.72.644 0 1.156-.24 1.53-.72.376-.476.564-1.132.564-1.968 0-.822-.187-1.474-.562-1.954-.375-.477-.887-.72-1.53-.72zm0-.734c.914 0 1.648.312 2.203.937.55.617.828 1.438.828 2.47 0 1.042-.277 1.87-.828 2.483-.555.617-1.29.922-2.203.922-.93 0-1.668-.305-2.22-.922C.774-1.41.5-2.237.5-3.28c0-1.033.273-1.853.828-2.47.55-.625 1.29-.938 2.22-.938zm0 0"/></symbol><symbol overflow="visible" id="b"><path d="M.89-6.563H2.08l2.906 5.485v-5.484h.86V0H4.656L1.75-5.484V0H.89zm0 0"/></symbol><symbol overflow="visible" id="c"><path d="M.89-6.563h.876v2.688H5v-2.688h.89V0H5v-3.125H1.766V0H.89zm0 0"/></symbol></defs><g><path fill="#fff" d="M0 0h300v300H0z"/><path d="M264.75 136.95l-6.656-8.64" stroke-width="1.2" stroke="#000" stroke-miterlimit="10" fill="none"/><path d="M258.094 128.31l-6.656-8.638M251.438 119.672l-10.813 1.445" stroke-width="1.2" stroke="#f00" stroke-miterlimit="10" fill="none"/><path d="M240.625 121.117l-10.81 1.445" stroke-width="1.2" stroke="#000" stroke-miterlimit="10" fill="none"/><path d="M247.438 114.172h8v11h-8zm0 0" fill="#fff"/><use xlink:href="#a" x="247.438" y="122.835" fill="#f00"/><path d="M229.816 122.563l-8.304 20.167M224.242 122.625l-6.644 16.137M216.504 105.29l13.312 17.272M221.512 142.73l-21.617 2.895M199.895 145.625l-13.313-17.277M202.63 140.762l-10.653-13.82M199.895 145.625l-4.153 10.082" stroke-width="1.2" stroke="#000" stroke-miterlimit="10" fill="none"/><path d="M195.742 155.707l-4.152 10.086" stroke-width="1.2" stroke="#f00" stroke-miterlimit="10" fill="none"/><path d="M186.582 128.348l8.305-20.168M186.582 128.348l-21.62 2.89M194.887 108.18l21.617-2.89M197.727 112.977l17.296-2.313M164.96 131.238l-4.15 10.086" stroke-width="1.2" stroke="#000" stroke-miterlimit="10" fill="none"/><path d="M160.81 141.324l-4.154 10.082M156.656 151.406l-10.808 1.45" stroke-width="1.2" stroke="#00f" stroke-miterlimit="10" fill="none"/><path d="M145.848 152.855l-10.81 1.446" stroke-width="1.2" stroke="#000" stroke-miterlimit="10" fill="none"/><path d="M149.656 145.906h14v11h-14zm0 0" fill="#fff"/><g fill="#00f"><use xlink:href="#b" x="149.656" y="154.569"/><use xlink:href="#c" x="156.634" y="154.569"/></g><path d="M135.04 154.3l-6.657-8.64" stroke-width="1.2" stroke="#000" stroke-miterlimit="10" fill="none"/><path d="M128.383 145.66l-6.66-8.637" stroke-width="1.2" stroke="#00f" stroke-miterlimit="10" fill="none"/><path d="M129.64 155.703l-5.324-6.91" stroke-width="1.2" stroke="#000" stroke-miterlimit="10" fill="none"/><path d="M124.316 148.793l-5.324-6.91" stroke-width="1.2" stroke="#00f" stroke-miterlimit="10" fill="none"/><path d="M126.734 174.47l8.305-20.17" stroke-width="1.2" stroke="#000" stroke-miterlimit="10" fill="none"/><path d="M121.723 137.023l-10.81 1.446" stroke-width="1.2" stroke="#00f" stroke-miterlimit="10" fill="none"/><path d="M110.914 138.47l-10.81 1.444" stroke-width="1.2" stroke="#000" stroke-miterlimit="10" fill="none"/><path d="M118.723 131.523h7v11h-7zm0 0" fill="#fff"/><use xlink:href="#b" x="118.723" y="140.187" fill="#00f"/><path d="M100.105 139.914L95.953 150" stroke-width="1.2" stroke="#000" stroke-miterlimit="10" fill="none"/><path d="M95.953 150L91.8 160.086" stroke-width="1.2" stroke="#00f" stroke-miterlimit="10" fill="none"/><path d="M104.02 143.887l-3.32 8.066" stroke-width="1.2" stroke="#000" stroke-miterlimit="10" fill="none"/><path d="M100.7 151.953l-3.32 8.067" stroke-width="1.2" stroke="#00f" stroke-miterlimit="10" fill="none"/><path d="M100.105 139.914L86.793 122.64" stroke-width="1.2" stroke="#000" stroke-miterlimit="10" fill="none"/><path d="M91.8 160.086l6.657 8.637" stroke-width="1.2" stroke="#00f" stroke-miterlimit="10" fill="none"/><path d="M98.457 168.723l6.656 8.636" stroke-width="1.2" stroke="#000" stroke-miterlimit="10" fill="none"/><path d="M88.8 154.586h7v11h-7zm0 0" fill="#fff"/><use xlink:href="#b" x="88.801" y="163.249" fill="#00f"/><path d="M105.113 177.36l-8.304 20.167M109.03 181.332l-6.643 16.133M126.734 174.47l-21.62 2.89M96.81 197.527l13.315 17.278M110.125 214.805l21.617-2.89M111.605 209.43l17.297-2.313M131.742 211.914l8.305-20.168M140.047 191.746l-13.313-17.277M134.652 193.148L124 179.328M86.793 122.64l8.305-20.167M82.875 118.668l6.645-16.133M65.172 125.53l21.62-2.89M95.098 102.473L81.78 85.195M81.78 85.195l-21.616 2.89M80.3 90.57L63.01 92.883M60.164 88.086l-8.305 20.168M51.86 108.254L65.17 125.53M57.254 106.852l10.652 13.82M65.172 125.53l-4.152 10.087" stroke-width="1.2" stroke="#000" stroke-miterlimit="10" fill="none"/><path d="M61.02 135.617L56.867 145.7M56.867 145.7l-10.808 1.445" stroke-width="1.2" stroke="#f00" stroke-miterlimit="10" fill="none"/><path d="M46.06 147.145l-10.81 1.45" stroke-width="1.2" stroke="#000" stroke-miterlimit="10" fill="none"/><path d="M52.867 140.2h8v11h-8zm0 0" fill="#fff"/><use xlink:href="#a" x="52.867" y="148.862" fill="#f00"/><path d="M191.59 165.793l6.656 8.637" stroke-width="1.2" stroke="#f00" stroke-miterlimit="10" fill="none"/><path d="M198.246 174.43l6.656 8.636" stroke-width="1.2" stroke="#000" stroke-miterlimit="10" fill="none"/><path d="M187.59 160.293h8v11h-8zm0 0" fill="#fff"/><use xlink:href="#a" x="187.59" y="168.956" fill="#f00"/></g></svg>
